img/icons/google.svg

<svg width="40" height="40" viewBox="0 0 40 40" fill="none" xmlns="http://www.w3.org/2000/svg">
<g clip-path="url(#clip0_1161_12871)">
<path fill-rule="evenodd" clip-rule="evenodd" d="M39.2 20.4561C39.2 19.038 39.0727 17.6743 38.8364 16.3652H20V24.1016H30.7636C30.3 26.6016 28.8909 28.7198 26.7727 30.138V35.1561H33.2364C37.0182 31.6743 39.2 26.547 39.2 20.4561Z" fill="#4285F4"/>
<path fill-rule="evenodd" clip-rule="evenodd" d="M20.0002 39.9988C25.4002 39.9988 29.9274 38.2079 33.2365 35.1534L26.7729 30.1352C24.982 31.3352 22.6911 32.0443 20.0002 32.0443C14.7911 32.0443 10.382 28.5261 8.80926 23.7988H2.12744V28.9806C5.41835 35.517 12.182 39.9988 20.0002 39.9988Z" fill="#34A853"/>
<path fill-rule="evenodd" clip-rule="evenodd" d="M8.80909 23.7994C8.40909 22.5994 8.18182 21.3176 8.18182 19.9994C8.18182 18.6812 8.40909 17.3994 8.80909 16.1994V11.0176H2.12727C0.772727 13.7176 0 16.7721 0 19.9994C0 23.2267 0.772727 26.2812 2.12727 28.9812L8.80909 23.7994Z" fill="#FBBC05"/>
<path fill-rule="evenodd" clip-rule="evenodd" d="M20.0003 7.95454C22.9367 7.95454 25.573 8.96363 27.6457 10.9455L33.3821 5.20909C29.9185 1.98182 25.3912 0 20.0003 0C12.1821 0 5.41847 4.48182 2.12756 11.0182L8.80938 16.2C10.3821 11.4727 14.7912 7.95454 20.0003 7.95454Z" fill="#EA4335"/>
</g>
<defs>
<clipPath id="clip0_1161_12871">
<rect width="40" height="40" fill="white"/>
</clipPath>
</defs>
</svg>

<svg width="40" height="40" fill="none" xmlns="http://www.w3.org/2000/svg"><g clip-path="url(#clip0_1161_12871)" fill-rule="evenodd" clip-rule="evenodd"><path d="M39.2 20.456c0-1.418-.127-2.782-.364-4.09H20v7.736h10.764c-.464 2.5-1.873 4.618-3.991 6.036v5.018h6.463c3.782-3.482 5.964-8.609 5.964-14.7z" fill="#4285F4"/><path d="M20 39.999c5.4 0 9.927-1.791 13.236-4.846l-6.463-5.018c-1.791 1.2-4.082 1.91-6.773 1.91-5.209 0-9.618-3.519-11.19-8.246H2.126v5.182C5.418 35.517 12.182 39.999 20 39.999z" fill="#34A853"/><path d="M8.81 23.8c-.4-1.2-.628-2.482-.628-3.8 0-1.319.227-2.6.627-3.8v-5.182H2.127A19.992 19.992 0 000 19.999c0 3.228.773 6.282 2.127 8.982L8.81 23.8z" fill="#FBBC05"/><path d="M20 7.955c2.937 0 5.573 1.009 7.646 2.99l5.736-5.736C29.92 1.982 25.392 0 20 0 12.182 0 5.418 4.482 2.128 11.018L8.809 16.2C10.382 11.473 14.791 7.955 20 7.955z" fill="#EA4335"/></g><defs><clipPath id="clip0_1161_12871"><path fill="#fff" d="M0 0h40v40H0z"/></clipPath></defs></svg>
